svgs/1F911.svg

<svg xmlns="http://www.w3.org/2000/svg" xmlns:xlink="http://www.w3.org/1999/xlink" preserveAspectRatio="none" viewBox="0 0 72 72"><defs><path id="a" fill="#FCC21B" d="M127.2 93.45q0-27.05-8.45-47.2Q103.3 9.5 64 9.5q-39.35 0-54.8 36.75Q.75 66.4.75 93.45q0 10.4 18.5 17.75 18.55 7.35 44.75 7.35 26.15 0 44.7-7.35 18.5-7.35 18.5-17.75z"/><path id="b" fill="#2F2F2F" d="M55.15 46.15q.95-3.3-.7-4.4-1.1-.75-2.85-.6-.2.05-3 .6-5.7 1.15-12.4 1.15-6.75 0-12.4-1.15-2.8-.55-3-.6-1.75-.15-2.9.6-1.6 1.1-.65 4.4.95 3.3 3.55 6.05 2.4 2.45 5.4 4 4.55 2.4 10 2.4t10-2.4q3-1.55 5.35-4 2.65-2.75 3.6-6.05z"/><path id="c" fill="#7CB342" d="M36 47.65q-5.3 0-10.45-.8.6.7 2.3 9.75.2 1.05.4 1.95.8 2.3 1.95 3.65 1 1.2 2.3 1.6 1.45.5 3.5.5t3.5-.5q1.3-.4 2.3-1.6 1.15-1.35 1.95-3.65.2-.9.4-1.95 1.7-9.05 2.3-9.75-5.15.8-10.45.8z"/><path id="d" fill="#2F2F2F" d="M62.75 91.2q-.45.5-.45 1.15V93q-2.85.3-4.8 1.95-2.2 1.8-2.2 4.05 0 2.3 2.1 4 2.05 1.75 4.9 2.45v6.8q-1.55-.3-2.6-1.5-.65-.65-1-1.7-.35-1.4-1.8-1.4-.95 0-1.55.75-.55.75-.25 1.65.65 1.75 1.9 3 2.2 2.2 5.2 2.5v.6q0 .7.45 1.15.5.45 1.15.45.7 0 1.15-.45.45-.45.45-1.15v-.6q3.05-.3 5.1-2.2 2.3-2 2.3-4.7.15-2.05-2.25-3.8-2.45-1.75-5.05-2.2v-6.3q.95.2 1.8 1.15.6.65.9 1.45.55 1.05 1.6 1.05h.2q1.05 0 1.6-.9.55-.95.05-1.9-.5-1.15-1.5-2-2.05-1.9-4.65-2.2v-.65q0-.65-.45-1.15-.45-.45-1.15-.45-.65 0-1.15.45m-3.7 7.65q0-1 1-1.7.85-.7 2.2-1v5.8q-1.15-.35-2.2-1.2-1-1.2-1-1.9M68 107.1q1.05.65 1.05 1.6 0 1.05-1.05 2.2-1.05.9-2.5 1.2v-6.2q1.65.5 2.5 1.2z"/><path id="e" fill="#2F2F2F" d="M41.9 41.5v.8q-3.05.3-5.4 2.1-2.45 2-2.45 4.6 0 2.4 2.45 4.5 2.1 1.95 5.5 2.7v7.7q-1.6-.3-2.95-1.7-.85-1-1.05-2-.25-.7-.75-1.15-.6-.45-1.25-.45-1.1 0-1.7.85-.65.85-.3 1.85.75 2.2 2.2 3.4 2.25 2.35 5.9 2.8v.7q0 .75.55 1.3.5.5 1.25.5t1.3-.5q.5-.55.5-1.3v-.7q3.55-.5 5.8-2.4 2.5-2.2 2.5-5.3-.4-2.4-2.75-4.2-2.1-1.7-5.75-2.5V46q1.05.4 2 1.3.65.85 1.05 1.6.5 1.2 1.8 1.2h.2q1.2 0 1.8-1 .65-1.05.15-2.1-.9-1.5-1.75-2.2-2.05-2.05-5.25-2.5v-.8q0-.75-.5-1.25-.55-.5-1.3-.5t-1.25.5q-.55.5-.55 1.25m-3.5 7.45q0-1.15 1.1-2 1.3-.9 2.5-1.1v6.5q-1.35-.4-2.5-1.4-1.1-.9-1.1-2m9.85 9.15q1.3.9 1.3 1.9 0 1.4-1.3 2.5-.95.95-2.75 1.3v-7q1.85.55 2.75 1.3z"/><path id="f" fill="#2F2F2F" d="M85.75 42.3v-.8q0-.75-.5-1.25-.55-.5-1.3-.5t-1.25.5q-.55.5-.55 1.25v.8q-3.05.3-5.4 2.1-2.4 1.95-2.4 4.6 0 2.4 2.4 4.5 2.05 1.9 5.5 2.7v7.7q-1.65-.3-2.9-1.7-.8-.95-1.1-2-.25-.7-.75-1.15-.6-.45-1.25-.45-1.05 0-1.65.85-.65.85-.35 1.85.7 2.1 2.2 3.4 2.35 2.35 5.9 2.8v.7q0 .75.55 1.3.5.5 1.25.5t1.3-.5q.5-.55.5-1.3v-.7q3.55-.5 5.8-2.4 2.5-2.2 2.5-5.3-.15-2.25-2.7-4.2-2.15-1.7-5.8-2.5V46q1 .35 2 1.3.8 1 1.1 1.6.5 1.2 1.8 1.2h.2q1.2 0 1.8-1 .65-1.05.1-2.1-.75-1.45-1.7-2.2-2.05-2.05-5.3-2.5m2.9 15.8Q90 59.15 90 60q0 1.4-1.35 2.5-1.05 1-2.8 1.3v-7q1.9.5 2.8 1.3m-6.4-12.25v6.5q-1.35-.4-2.5-1.4-1.1-1-1.1-2 0-1.15 1.1-2 1.3-.9 2.5-1.1z"/></defs><use transform="scale(.5625)" xlink:href="#a"/><use xlink:href="#b"/><use xlink:href="#c"/><use transform="matrix(.56096 0 0 .56073 .15 -2.55)" xlink:href="#d"/><use transform="matrix(.56096 0 0 .56073 .1 -.6)" xlink:href="#e"/><g transform="matrix(.56096 0 0 .56073 .1 -.6)"><use xlink:href="#f"/></g></svg>

<svg xmlns="http://www.w3.org/2000/svg" version="1.1" xmlns:xlink="http://www.w3.org/1999/xlink" preserveAspectRatio="none" x="0px" y="0px" width="72px" height="72px" viewBox="0 0 72 72">
<defs>
<g id="Layer2_0_FILL">
<path fill="#FCC21B" stroke="none" d="
M 127.2 93.45
Q 127.2 66.4 118.75 46.25 103.3 9.5 64 9.5 24.65 9.5 9.2 46.25 0.75 66.4 0.75 93.45 0.75 103.85 19.25 111.2 37.8 118.55 64 118.55 90.15 118.55 108.7 111.2 127.2 103.85 127.2 93.45 Z"/>
</g>

<g id="Layer2_1_FILL">
<path fill="#2F2F2F" stroke="none" d="
M 55.15 46.15
Q 56.1 42.85 54.45 41.75 53.35 41 51.6 41.15 51.4 41.2 48.6 41.75 42.9 42.9 36.2 42.9 29.45 42.9 23.8 41.75 21 41.2 20.8 41.15 19.05 41 17.9 41.75 16.3 42.85 17.25 46.15 18.2 49.45 20.8 52.2 23.2 54.65 26.2 56.2 30.75 58.6 36.2 58.6 41.65 58.6 46.2 56.2 49.2 54.65 51.55 52.2 54.2 49.45 55.15 46.15 Z"/>
</g>

<g id="Layer1_0_FILL">
<path fill="#7CB342" stroke="none" d="
M 36 47.65
Q 30.7 47.65 25.55 46.85 26.15 47.55 27.85 56.6 28.05 57.65 28.25 58.55 29.05 60.85 30.2 62.2 31.2 63.4 32.5 63.8 33.95 64.3 36 64.3 38.05 64.3 39.5 63.8 40.8 63.4 41.8 62.2 42.95 60.85 43.75 58.55 43.95 57.65 44.15 56.6 45.85 47.55 46.45 46.85 41.3 47.65 36 47.65 Z"/>
</g>

<g id="Layer0_0_FILL">
<path fill="#2F2F2F" stroke="none" d="
M 62.75 91.2
Q 62.3 91.7 62.3 92.35
L 62.3 93
Q 59.45 93.3 57.5 94.95 55.3 96.75 55.3 99 55.3 101.3 57.4 103 59.45 104.75 62.3 105.45
L 62.3 112.25
Q 60.75 111.95 59.7 110.75 59.05 110.1 58.7 109.05 58.35 107.65 56.9 107.65 55.95 107.65 55.35 108.4 54.8 109.15 55.1 110.05 55.75 111.8 57 113.05 59.2 115.25 62.2 115.55
L 62.2 116.15
Q 62.2 116.85 62.65 117.3 63.15 117.75 63.8 117.75 64.5 117.75 64.95 117.3 65.4 116.85 65.4 116.15
L 65.4 115.55
Q 68.45 115.25 70.5 113.35 72.8 111.35 72.8 108.65 72.95 106.6 70.55 104.85 68.1 103.1 65.5 102.65
L 65.5 96.35
Q 66.45 96.55 67.3 97.5 67.9 98.15 68.2 98.95 68.75 100 69.8 100
L 70 100
Q 71.05 100 71.6 99.1 72.15 98.15 71.65 97.2 71.15 96.05 70.15 95.2 68.1 93.3 65.5 93
L 65.5 92.35
Q 65.5 91.7 65.05 91.2 64.6 90.75 63.9 90.75 63.25 90.75 62.75 91.2
M 59.05 98.85
Q 59.05 97.85 60.05 97.15 60.9 96.45 62.25 96.15
L 62.25 101.95
Q 61.1 101.6 60.05 100.75 59.05 99.55 59.05 98.85
M 68 107.1
Q 69.05 107.75 69.05 108.7 69.05 109.75 68 110.9 66.95 111.8 65.5 112.1
L 65.5 105.9
Q 67.15 106.4 68 107.1 Z"/>
</g>

<g id="Layer0_1_MEMBER_0_FILL">
<path fill="#2F2F2F" stroke="none" d="
M 41.9 41.5
L 41.9 42.3
Q 38.85 42.6 36.5 44.4 34.05 46.4 34.05 49 34.05 51.4 36.5 53.5 38.6 55.45 42 56.2
L 42 63.9
Q 40.4 63.6 39.05 62.2 38.2 61.2 38 60.2 37.75 59.5 37.25 59.05 36.65 58.6 36 58.6 34.9 58.6 34.3 59.45 33.65 60.3 34 61.3 34.75 63.5 36.2 64.7 38.45 67.05 42.1 67.5
L 42.1 68.2
Q 42.1 68.95 42.65 69.5 43.15 70 43.9 70 44.65 70 45.2 69.5 45.7 68.95 45.7 68.2
L 45.7 67.5
Q 49.25 67 51.5 65.1 54 62.9 54 59.8 53.6 57.4 51.25 55.6 49.15 53.9 45.5 53.1
L 45.5 46
Q 46.55 46.4 47.5 47.3 48.15 48.15 48.55 48.9 49.05 50.1 50.35 50.1
L 50.55 50.1
Q 51.75 50.1 52.35 49.1 53 48.05 52.5 47 51.6 45.5 50.75 44.8 48.7 42.75 45.5 42.3
L 45.5 41.5
Q 45.5 40.75 45 40.25 44.45 39.75 43.7 39.75 42.95 39.75 42.45 40.25 41.9 40.75 41.9 41.5
M 38.4 48.95
Q 38.4 47.8 39.5 46.95 40.8 46.05 42 45.85
L 42 52.35
Q 40.65 51.95 39.5 50.95 38.4 50.05 38.4 48.95
M 48.25 58.1
Q 49.55 59 49.55 60 49.55 61.4 48.25 62.5 47.3 63.45 45.5 63.8
L 45.5 56.8
Q 47.35 57.35 48.25 58.1 Z"/>
</g>

<g id="Layer0_1_MEMBER_1_FILL">
<path fill="#2F2F2F" stroke="none" d="
M 85.75 42.3
L 85.75 41.5
Q 85.75 40.75 85.25 40.25 84.7 39.75 83.95 39.75 83.2 39.75 82.7 40.25 82.15 40.75 82.15 41.5
L 82.15 42.3
Q 79.1 42.6 76.75 44.4 74.35 46.35 74.35 49 74.35 51.4 76.75 53.5 78.8 55.4 82.25 56.2
L 82.25 63.9
Q 80.6 63.6 79.35 62.2 78.55 61.25 78.25 60.2 78 59.5 77.5 59.05 76.9 58.6 76.25 58.6 75.2 58.6 74.6 59.45 73.95 60.3 74.25 61.3 74.95 63.4 76.45 64.7 78.8 67.05 82.35 67.5
L 82.35 68.2
Q 82.35 68.95 82.9 69.5 83.4 70 84.15 70 84.9 70 85.45 69.5 85.95 68.95 85.95 68.2
L 85.95 67.5
Q 89.5 67 91.75 65.1 94.25 62.9 94.25 59.8 94.1 57.55 91.55 55.6 89.4 53.9 85.75 53.1
L 85.75 46
Q 86.75 46.35 87.75 47.3 88.55 48.3 88.85 48.9 89.35 50.1 90.65 50.1
L 90.85 50.1
Q 92.05 50.1 92.65 49.1 93.3 48.05 92.75 47 92 45.55 91.05 44.8 89 42.75 85.75 42.3
M 88.65 58.1
Q 90 59.15 90 60 90 61.4 88.65 62.5 87.6 63.5 85.85 63.8
L 85.85 56.8
Q 87.75 57.3 88.65 58.1
M 82.25 45.85
L 82.25 52.35
Q 80.9 51.95 79.75 50.95 78.65 49.95 78.65 48.95 78.65 47.8 79.75 46.95 81.05 46.05 82.25 45.85 Z"/>
</g>
</defs>

<g id="Layer_1">
<g transform="matrix( 0.5625, 0, 0, 0.5625, 0,0) ">
<use xlink:href="#Layer2_0_FILL"/>
</g>

<g transform="matrix( 1, 0, 0, 1, 0,0) ">
<use xlink:href="#Layer2_1_FILL"/>
</g>
</g>

<g id="Camada_3">
<g transform="matrix( 1, 0, 0, 1, 0,0) ">
<use xlink:href="#Layer1_0_FILL"/>
</g>
</g>

<g transform="matrix( 0.5609588623046875, 0, 0, 0.56072998046875, 0.15,-2.55) ">
<use xlink:href="#Layer0_0_FILL"/>
</g>

<g transform="matrix( 0.5609588623046875, 0, 0, 0.56072998046875, 0.1,-0.6) ">
<use xlink:href="#Layer0_1_MEMBER_0_FILL"/>
</g>

<g transform="matrix( 0.5609588623046875, 0, 0, 0.56072998046875, 0.1,-0.6) ">
<use xlink:href="#Layer0_1_MEMBER_1_FILL"/>
</g>
</svg>
